X:1
T:Pingstpsalm
T:August Söderman (1832-1876)
T:Pingstpsalm
T:©PA Aglert Edition may be freely distributed, duplicated, performed and recorded
T:©PA Aglert Edition may be freely distributed, duplicated, performed and recorded
T:©PA Aglert Edition may be freely distributed, duplicated, performed and recorded
T:©PA Aglert Edition may be freely distributed, duplicated, performed and recorded
T:©PA Aglert Edition may be freely distributed, duplicated, performed and recorded
T:©PA Aglert Edition may be freely distributed, duplicated, performed and recorded
T:©PA Aglert Edition may be freely distributed, duplicated, performed and recorded
C:August Söderman (1832-1876)
Z:©PA Aglert
Z:Edition may be freely distributed, duplicated, performed and recorded
%%score [ 1 2 3 4 ]
L:1/8
Q:1/4=120
M:4/4
K:Bb
V:1 treble nm="S"
V:2 treble nm="A"
V:3 treble-8 nm="T"
V:4 bass nm="B"
V:1
"^Allegro moderato" z2 | z8 | z8 | z8 | z4 z2!mf! F2 | F3 F G2 F2 | d2 c2 B2 A2 | (G3 B A2) G2 | %8
w: ||||Vi|lo- va dig, du|Hel- ge And, du|Hel- * * ge|
 (G4 A2) z2 | z8 | z4 z2 (=e>g) | c2 =e2 A2 d2 | G3 A !courtesy!_B2!f! (B>d) | G2 B2 (=E2 G2 | %14
w: And. *||Till *|allt som är du|strä- cker dig. På *|gå- vor o- *|
 B4- B2) A2 | A4- A2 G2 | F2 z2 z4 | z8 | z8 | z8 |!p! D3"^cresc." D =E2 D2 | A2 G2 =E2 C2 | %22
w: * * ut-|töm- * me-|lig.||||Fat- tig- dom och|kamp och nöd, i|
 (c3 =B c2) ^c2 | (^c4 d2)!f! d>d | f8- | f2 d2 B2 F2 | D4!p! F2 F2 | B4 A4 | A4- A2 G2 | %29
w: slu- * * tet|död. * Är vad|jor-|* den oss be-|skär; Men all|him- melsk|del * din|
 F4- F2 !courtesy!_E2 | D2 z2 z4 | z4 z2!mf! (d>f) | B2 d2 G2 B2 | E3 G G2 G2 | F3!f! B B2 B2 | %35
w: gå- * va|är.|All *|vis- het, tro och|kär- lek sann, Allt|mod, som mod rätt|
 A3 d d2 d2 | c4 B4 | A2 AA d2 ^c2 |!<(! f2 =e2 d2 A2!<)! | a2 z2 z2!f! d>d | g8- | %41
w: kal- las kan, rätt|kal- las|kan. En- dräkt, frid och|gläd- je ljuv, o|allt, Hel- ge|And.|
 g2- g z!p! G2 G2 |"^cresc." G3 G G2 G2 | G3 B B2 B2 |!f! B3 g g2 g2 | f8- | f8- | f2 z2 z4 | z8 | %49
w: * * ver- kar|du, ja Hel- ge|An- de, ver- kar|du, ja Hel- ge|And,||||
 z8 | z8 | z2!<(! ^FG _A2!<)! =A2 |!>(! c2 B2 (A2!>)! G2) |"^cresc." F3 A A2 A2 | A3 c c2 c2 | %55
w: ||Vi dig bed- ja|den- na stund *|för oss sist till|e- vig fröjd med|
 c3 f f2 f2 |!ff! f4 f4 | f8 |] %58
w: dig u- ti din|him- mels|höjd.|
V:2
 z2 | z8 | z4 z2!mf! D2 | D3 D E2 D2 | A2 G2 F2 F2 | =E4 E4 | F6 F2 | F4 =E4 | (=E4 F2) z2 | z8 | %10
w: ||Vi|lo- va dig, du|Hel- ge And, Guds|kär- leks|eld, Guds|god- hets|hand. *||
 z4 z2 (c>=B) | A2 G2 F2 D2 | =E3 F G2!f! (G>F) | =E2 D2 (C2 D2- | D2) ^C2 (=C4- | C2 =B,2) _B,4 | %16
w: Till *|allt som är du|strä- cker dig. På *|gå- vor o- *|* ut- töm-|* * me-|
 A,2 z2 z4 | z4 z2!pp! A,2 | A,3 A, B,2 A,2 | =E2 D2 C2 C2 |!p! B,3"^cresc." B, B,2 B,2 | %21
w: lig.|Ack,|fat- tig- dom och|kamp och nöd, i|bör- jan gråt, i|
 B,4 B,2 B,2 | A,4 !courtesy!_E4 | (E4 D2)!f! B>B | d8- | d2 B2 F2 D2 | B,4!p! D2 D2 | D4 D4 | %28
w: slu- tet, i|slu- tet|död. * Är vad|jor-|* den oss be-|skär; Men all|him- melsk|
 _D4 C4 | C4 C4 | B,2 z2 z4 | z4 z2!mf! (B>A) | G2 F2 E2 D2 | C3 E E2 E2 | E3!f! E E2 E2 | %35
w: del din|gå- va|är.|All *|vis- het, tro och|kär- lek sann, Allt|mod, som mod rätt|
 E3 E E2 E2 | E4 D4 | F2 z2 z4 | z2!<(! AA d2!<)! ^c2 | !courtesy!=c2 A2 d2 z2 | z2!f! B>d G2 B2 | %41
w: kal- las kan, rätt|kal- las|kan.|En- dräkt, frid och|gläd- je ljuv,|Hel- ge An- de.|
 E2 G2!p! C2 E2 |"^cresc." D3 D D2 D2 | D3 G G2 G2 |!f! G3 B B2 B2 | B2 F>F B2 A2 | %46
w: ver- kar, ver- kar|du, ja Hel- ge|An- de, ver- kar|du, ja Hel- ge|And, Hel- ge An- de|
 (d2 ^c2 =c2) A2 | B2 z2 z4 | z8 | z2 DD E2 D2 | F2 E2 D2 _D2 | C4 C2 C2 | B,2 D2 E2 E2 | %53
w: ver- * * kar|du.||Vi dig bed- ja|den- na stund: Be-|håll oss i|ditt för- bund och|
"^cresc." E3 F F2 F2 | F3 [FA] [FA]2 [FA]2 | [FA]3 [FA] [FA]2 [FA]2 |!ff! [FA]4 [FA]4 | [FB]8 |] %58
w: för oss sist till|e- vig fröjd med|dig u- ti din|hem- mels|höjd.|
V:3
 z2 | z8 | z4 z2!mf! B2 | B4 B4 | B4 B4 | B3 B c2 B2 | B2 A2 B2 c2 | d4 (c2 B2) | (B4 A2) (A>c) | %9
w: ||Vi|lo- va|dig, du|Hel- ge And, Guds|kär- leks eld, Guds|god- hets *|hand. * Till *|
 F2 A2 D2 G2 | =E3 F G2 c2 | c2 c2 c2 c2 | c3 c c2!f! (B>d) | G2 B2 (=E2 G2- | G4- G2) ^F2 | %15
w: allt som är du|strä- cker dig, till|allt som är du|strä- cker dig. På *|gå- vor o- *|* * ut-|
 !courtesy!=F4- F2 =E2 | F2 z2 z4 | z4 z2!pp! F2 | F4 F4 | F4 F4 |!p! F3"^cresc." F F2 F2 | %21
w: töm- * me-|lig.|Ack,|fat- tig-|dom och|kamp och nöd, i|
 F2 =E2 G2 _E2 | F4 A4 | (A4 B2)!f! d>d | f8- | f2 d2 B2 F2 | D4!p! B2 B2 | B4 B4 | B4 B4 | B4 A4 | %30
w: bör- jan gråt, i|slu- tet|död. * Är vad|jor-|* den oss be-|skär; Men all|him- melsk|del din|gå- va|
 B2!p! FF B2 A2 | d2 c2 B4 | B4 B2 B2 | B3 c c2 c2 | c3!f! c c2 c2 | c3 B B2 B2 | A4 B4 | %37
w: är. Vis- het, tro och|kär- lek sann,|allt mod, som|mod rätt kal- las|kan, allt mod, som|mod rätt kal- las,|kal- las|
 d2 z2 z2 AA |!<(! d2 ^c2 f2!<)! =e2 | d2 A2 d2 z2 | z2!f! g>f !courtesy!_e2 d2 | c2 B2!p! A2 c2 | %42
w: kan. En- dräkt,|frid och gläd- je,|gläd- je ljuv,|Hel- ge An- de.|ver- kar, ver- kar|
"^cresc." B3 B B2 B2 | B3 d d2 d2 |!f! ^c3 c c2 c2 | d2 f>f d2 c2 | (f2 =e2 _e3) e | %47
w: du, ja Hel- ge|An- de, ver- kar|du, ja Hel- ge|And, Hel- ge An- de|ver- * * kar|
 d2!p! FF B2 A2 | d2 c2 B2 A2 | _A4 A4 | G4 F4 | =E4 _E4 | (D2 F2 G2) G2 | %53
w: du. Vi dig bed- ja|den- na stund: Be-|håll oss|ut- i|ditt för-|bund * * och|
"^cresc." A3 [ce] [ce]2 [ce]2 | [ce]3 e e2 e2 | e3 [ce] [ce]2 [ce]2 |!ff! [ce]4 [ce]4 | d8 |] %58
w: för oss sist till|e- vig fröjd med|dig u- ti din|hem- mels|höjd.|
V:4
!mf! F,2 | F,3 F, B,2 A,2 | D2 C2 B,2 A,2 | G,4 F,4 | (E,4 D,2) _D,2 | C,3 C, C,2 C,2 | %6
w: Vi|lo- va dig, du|Hel- ge And, Guds|kär- leks|eld, * Guds|god- hets hand, vi|
 F,3 !courtesy!_E, D,2 C,2 | B,,4 C,4 | F,4- F,2 (F,>=E,) | D,2 C,2 =B,,2 G,,2 | C,3 D, E,2 C,2 | %11
w: lo- va dig, du|Hel- ge|and. * Till *|allt som är du|strä- cker dig, till|
 C,2 C,2 C,2 C,2 | C,3 C, C,2!f! (G,>F,) | =E,2 D,2 (C,2 B,,2 | A,,4) D,4 | G,,4 C,4 | %16
w: allt som är du|strä- cker dig. På *|gå- vor o- *|* ut-|töm- me-|
 F,,2!pp! C,C, F,2 =E,2 | A,2 G,2 F,2 =E,2 | D,4 C,4 | (B,,4 A,,2) _A,,2 | %20
w: lig. Fat- tig- dom och|kamp och nöd, i|bör- jan|gråt, * i|
!p! G,,3"^cresc." G,, G,,2 G,,2 | C,4 C,2 C,2 | F,4 F,4 | B,,4- B,,2!f! B,>B, | D8- | %25
w: slu- tet död, i|slu- tet, i|slu- tet|död. * Är vad|jor-|
 D2 B,2 F,2 D,2 | B,,4!p! B,2 A,2 | G,4 F,4 | =E,4 E,4 | F,4 F,4 | B,,2!p! F,F, B,2 A,2 | %31
w: * den oss be-|skär; Men all|him- melsk|del din|gå- va|är. Vis- het, tro och|
 D2 C2 B,4 | B,4 B,2 B,2 | B,3 B, B,2 B,2 | A,3!f! G, G,2 G,2 | F,3 F, F,2 F,2 | F,4 G,4 | %37
w: kär- lek sann,|allt mod, som|mod rätt kal- las|kan, allt mod, som|mod rätt kal- las,|kal- las|
 A,2 z2 z4 | z4 z2 A,G, | ^F,2 z2 z2!f! D,>D, | G,8- | G,2- G, z!p! G,,2 G,,2 | %42
w: kan.|En- dräkt,|frid, Hel- ge|And|* * ver- kar|
"^cresc." G,,3 G, G,2 G,2 | F,3 F, F,2 F,2 |!f! =E,3 E, E,2 E,2 | F,8- | F,8 | B,,2 z2 z4 | z8 | %49
w: du, ja Hel- ge|An- de, ver- kar|du, ja Hel- ge|An-||de.||
 B,,8 | B,,8 | B,,6 B,,2 | B,,4 B,,4 |"^cresc." B,,6 B,,2 | B,,6 B,,2 | B,,3 B, B,2 B,2 | %56
w: För|oss|sist till|i- vig|fröjd med|dig, med|dig u- ti din|
!ff! B,4 B,4 | B,8 |] %58
w: him- mels|höjd.|

